app/assets/images/logo_white.svg

<svg width="119" height="44" viewBox="0 0 119 44" fill="none" xmlns="http://www.w3.org/2000/svg">
<path d="M0.0151812 40.7619C0.834091 39.0476 1.47752 37.2674 2.20869 35.5091C6.04977 26.2295 9.87622 16.9499 13.688 7.67029C14.1267 6.60069 14.5362 5.52377 15.048 4.48348C15.4718 3.57802 16.1506 2.81648 17.0009 2.29261C17.8511 1.76873 18.8356 1.50538 19.8333 1.53496C20.831 1.56454 21.7983 1.88578 22.6161 2.45912C23.434 3.03246 24.0666 3.83288 24.4362 4.76186C29.3107 16.6153 34.1852 28.4713 39.0596 40.3296C39.2351 40.7619 39.1912 40.8498 38.7233 40.8424C36.8881 40.8424 35.0674 40.8424 33.2249 40.8424C33.108 40.8625 32.9879 40.8373 32.8888 40.7721C32.7897 40.7068 32.7191 40.6063 32.6911 40.4908C28.7916 30.5714 24.8774 20.6569 20.9486 10.7472C20.4952 9.60435 20.0492 8.4615 19.552 7.18677C15.7061 16.8205 11.9186 26.337 8.12385 35.8608C8.30639 35.937 8.50738 35.9574 8.70148 35.9194C12.1599 35.9194 15.611 35.9194 19.0621 35.9194C19.4497 35.9194 19.574 36 19.5593 36.4102C19.5593 37.7289 19.5593 39.0476 19.5593 40.3589C19.5593 40.7619 19.4716 40.8571 19.0695 40.8498C12.7327 40.8498 6.3788 40.8498 0.00787354 40.8498L0.0151812 40.7619Z" fill="white"/>
<path d="M113.632 40.8939H112.615C110.963 40.8939 109.303 40.8939 107.651 40.8939C107.534 40.9139 107.414 40.8888 107.314 40.8235C107.215 40.7582 107.145 40.6577 107.117 40.5422C104.538 33.983 101.95 27.4311 99.3518 20.8866C99.3442 20.8528 99.3442 20.8178 99.3518 20.784C99.3518 20.6888 99.4614 20.7034 99.5273 20.7034C101.377 20.7034 103.227 20.7034 105.077 20.7034C105.377 20.7034 105.45 20.8426 105.545 21.077C106.642 23.751 107.738 26.425 108.835 29.1357C108.873 29.2395 108.936 29.3326 109.018 29.4067C110 28.0875 110.729 26.597 111.167 25.0111C112.527 19.9488 111.672 15.2895 108.36 11.2016C106.168 8.42782 103.005 6.5942 99.5126 6.07338C96.0003 5.5383 92.4144 6.32339 89.445 8.27762C86.4755 10.2319 84.332 13.2172 83.4269 16.6595C82.7475 18.9608 82.6457 21.3945 83.1304 23.7447C83.615 26.095 84.6713 28.289 86.2053 30.132C88.3183 32.8368 91.3548 34.6633 94.7308 35.2602C95.9391 35.4547 97.1647 35.5185 98.3866 35.4507C98.5139 35.4328 98.6432 35.4636 98.7489 35.5369C98.8545 35.6102 98.9288 35.7206 98.9569 35.8463C99.5273 37.3115 100.112 38.7767 100.697 40.2419C100.807 40.5203 100.858 40.6375 100.449 40.6888C97.6877 41.1327 94.8652 41.0007 92.1577 40.301C89.4501 39.6014 86.916 38.3492 84.7138 36.6228C80.9107 33.741 78.2772 29.5773 77.2997 24.9012C76.6782 22.0275 76.6953 19.0519 77.3498 16.1855C78.0043 13.3192 79.2803 10.6322 81.0872 8.31514C83.9184 4.64395 87.9217 2.05783 92.4276 0.98913C94.2903 0.503938 96.2156 0.303874 98.138 0.395726C100.959 0.497593 103.728 1.18503 106.271 2.41453C108.813 3.64404 111.073 5.38885 112.908 7.53858C115.334 10.2949 116.924 13.6879 117.492 17.3188C117.995 20.1542 117.875 23.0656 117.138 25.8494C116.402 28.6333 115.068 31.2224 113.229 33.436C112.753 34.0109 112.246 34.5588 111.709 35.077C111.594 35.1559 111.514 35.2766 111.487 35.4135C111.459 35.5504 111.486 35.6926 111.562 35.8096C112.257 37.4433 112.915 39.0844 113.588 40.7254C113.602 40.762 113.61 40.762 113.632 40.8939Z" fill="white"/>
<path d="M59.3422 7.69225C54.692 7.69225 50.0466 7.69225 45.4061 7.69225C44.9674 7.69225 44.8504 7.59702 44.8577 7.15013C44.8577 5.50911 44.8577 3.87541 44.8577 2.23438C44.8577 1.89006 44.9455 1.79482 45.2964 1.80214H73.3733C73.7243 1.80214 73.8193 1.88273 73.8193 2.23438C73.8193 3.89006 73.8193 5.54574 73.8193 7.20141C73.8193 7.59702 73.7243 7.69225 73.3295 7.69225C68.6646 7.68737 64.0022 7.68737 59.3422 7.69225Z" fill="white"/>
<path d="M59.3422 40.8935H45.3623C44.9894 40.8935 44.8504 40.8423 44.8578 40.4173C44.8578 38.747 44.8578 37.0767 44.8578 35.4064C44.8578 35.0474 44.9601 34.9668 45.3038 34.9668C54.6579 34.9668 64.0144 34.9668 73.3734 34.9668C73.7755 34.9668 73.8194 35.106 73.8121 35.4503C73.8121 37.106 73.8121 38.7617 73.8121 40.41C73.8121 40.8203 73.7097 40.9009 73.3149 40.8935C68.6646 40.8862 63.9998 40.8935 59.3422 40.8935Z" fill="white"/>
<path d="M55.2842 24.1758C51.972 24.1758 48.7037 24.1758 45.3549 24.1758C44.9674 24.1758 44.8504 24.0952 44.8577 23.6849C44.8577 22.0146 44.8577 20.3443 44.8577 18.6739C44.8577 18.315 44.9601 18.2417 45.3038 18.2417H65.3085C65.6595 18.2417 65.8058 18.293 65.7984 18.6959C65.7984 20.3662 65.7984 22.0366 65.7984 23.7069C65.7984 24.0952 65.6741 24.1684 65.3159 24.1684C61.9671 24.1684 58.6257 24.1758 55.2842 24.1758Z" fill="white"/>
</svg>

<svg width="119" height="44" fill="none" xmlns="http://www.w3.org/2000/svg"><path d="M.015 40.762c.82-1.714 1.463-3.495 2.194-5.253 3.84-9.28 7.667-18.56 11.479-27.839.439-1.07.848-2.146 1.36-3.187a5.124 5.124 0 014.785-2.948 5.111 5.111 0 014.603 3.227c4.875 11.853 9.75 23.71 14.624 35.568.175.432.131.52-.337.512h-5.498a.467.467 0 01-.534-.351 11470.6 11470.6 0 00-11.742-29.744 622.52 622.52 0 01-1.397-3.56c-3.846 9.633-7.633 19.15-11.428 28.674a1 1 0 00.577.058h10.361c.388 0 .512.081.497.491v3.949c0 .403-.087.498-.49.49H.009l.007-.087zm113.617.132h-5.981a.47.47 0 01-.534-.352 6401.202 6401.202 0 00-7.765-19.655.234.234 0 010-.103c0-.095.11-.08.175-.08h5.55c.3 0 .373.139.468.373 1.097 2.674 2.193 5.348 3.29 8.059a.681.681 0 00.183.27 13.285 13.285 0 002.149-4.395c1.36-5.062.505-9.721-2.807-13.81a13.888 13.888 0 00-8.847-5.128 14.374 14.374 0 00-10.068 2.205 14.424 14.424 0 00-6.018 8.382 14.605 14.605 0 002.778 13.472 13.888 13.888 0 008.526 5.128c1.208.195 2.434.259 3.656.19a.51.51 0 01.57.396c.57 1.466 1.155 2.93 1.74 4.396.11.278.161.396-.248.447a20.274 20.274 0 01-15.735-4.066A19.785 19.785 0 0177.3 24.9a20.084 20.084 0 013.787-16.586A20.213 20.213 0 0192.427.99a19.048 19.048 0 015.711-.593 20.372 20.372 0 0114.77 7.143 19.322 19.322 0 014.584 9.78 19.812 19.812 0 01-4.263 16.117 20.041 20.041 0 01-1.52 1.641.534.534 0 00-.147.733c.695 1.633 1.353 3.274 2.026 4.915.014.037.022.037.044.169zM59.342 7.692H45.406c-.439 0-.556-.095-.548-.542V2.234c0-.344.088-.44.438-.432h28.077c.351 0 .446.08.446.432v4.967c0 .396-.095.491-.49.491-4.664-.005-9.327-.005-13.987 0zm0 33.202h-13.98c-.373 0-.512-.052-.504-.477v-5.01c0-.36.102-.44.446-.44h28.07c.401 0 .445.139.438.483v4.96c0 .41-.102.49-.497.484-4.65-.008-9.315 0-13.973 0zm-4.058-16.718h-9.93c-.387 0-.504-.08-.496-.491v-5.011c0-.359.102-.432.446-.432h20.004c.351 0 .498.051.49.454v5.01c0 .39-.124.462-.482.462-3.349 0-6.69.008-10.032.008z" fill="#fff"/></svg>
